X: 3481
T: Bhíos Lá I bPort Láirge
R: polka
M: 2/4
K: Dmajor
|:f/e/|dB AF|A2 AB/c/|dd ed/e/|fe ef/e/|
dB AF|A2 AB/c/|dd ed/e/|1 fd d:|2 fd d2 n||
|:fe fg|a2 gf|eb ba|be ef/e/|
dB AF|A2 AB/c/|dd ed/e/|fd d2:|

